X:1
T:Title
%%score { 1 | 2 }
L:1/8
M:6/4
K:Bb
V:1 treble nm="Grand Piano"
V:2 bass 
V:1
 z6 z4[Q:1/4=114] [DF]2 | [DB]2 [DB]2 [DB]2 [DB]2 [FA]2 [B,G]2 | [B,DF]2 [DFB]4- [DFB]4 [B,DB]2 | %3
 c2 c2 c2 [Fc]2 [FB]2 c2 | d6- d4 [DF]2 | [DB]2 [DB]2 [DB]2 [DB]2 [FA]2 [EG]2 | %6
 [DF]2 [DFB]4- [DFB]4 [B,EG]2 | [B,DF]2 [B,DF]2 [B,DF]2 [A,CF]2 [B,DF]2 [CEF]2 | %8
[M:5/4] [DF]2- [DF]2- [DF]6 |[M:1/4] [DB]>[DB] |[M:6/4] c2 c2 c2 c2 A2 F2 | %11
 [B,DF]2 [DFB]4- [DFB]4 [C^FA]2 | [B,G]2 [B,G]2 [=B,FG]2 [=EG]2 [EA]2 [EB]2 | [FA]6- [FA]4 [EF]2 | %14
 [DB]2 [DB]2 [DB]2 [DB]2 [FA]2 [EG]2 | [DF]2 [DFB]4- [DFB]4 [B,EG]2 | %16
 [B,DF]2 [B,DF]2 [B,DF]2 [A,CF]2 [B,DF]2 [CEF]2[Q:1/4=112][Q:1/4=110][Q:1/4=109][Q:1/4=107][Q:1/4=105][Q:1/4=103][Q:1/4=102][Q:1/4=100][Q:1/4=98][Q:1/4=96][Q:1/4=94][Q:1/4=93][Q:1/4=91][Q:1/4=89][Q:1/4=87] | %17
[M:5/4] [B,DF]2- [B,DF]2- [B,DF]6 |] %18
V:2
 z6 z4 [B,,B,]2 | [B,,B,]2 [B,,B,]2 [B,,B,]2 [B,,B,]2 [B,,B,]2 B,,2 | B,,2 B,,4- B,,4 B,,2 | %3
 [F,A,F]2 [F,A,F]2 [F,A,F]2 [E,A,]2 [D,B,]2[K:treble] [F,A,F]2 | [B,F]6- [B,F]4[K:bass] [B,,B,]2 | %5
 [B,,B,]2 [B,,B,]2 [B,,B,]2 [B,,B,]2 [B,,B,]2 [B,,B,]2 | [B,,B,]2 B,,4- B,,4 E,2 | %7
 F,2 F,2 F,2 F,2 F,2 F,,2 |[M:5/4] [B,,B,]2- [B,,B,]2- [B,,B,]6 |[M:1/4] [B,,B,]>[B,,B,] | %10
[M:6/4] [F,A,E]2 [F,A,E]2 [F,A,E]2 [F,A,E]2 [F,CE]2 [F,CE]2 | B,,2 B,,4- B,,4 D,2 | %12
 E,2 E,2 D,2 [C,C]2 [C,C]2 [C,C]2 | [F,C]6- [F,C]4 [F,A,]2 | %14
 [B,,B,]2 [B,,B,]2 [B,,B,]2 [B,,B,]2 [B,,B,]2 [B,,B,]2 | [B,,B,]2 B,,4- B,,4 E,2 | %16
 F,2 F,2 F,2 F,2 F,2 F,,2 |[M:5/4] B,,2- B,,2- B,,6 |] %18

